www/assets/icons/score.svg

<svg xmlns="http://www.w3.org/2000/svg" width="24" height="24" viewBox="0 0 24 24" fill='currentColor'><path d="M19 3H5c-1.1 0-2 .9-2 2v14c0 1.1.9 2 2 2h14c1.1 0 2-.9 2-2V5c0-1.1-.9-2-2-2m-7 2h1.5v3l2-3h1.7l-2 3 2 3h-1.7l-2-3v3H12zM7 7.25h2.5V6.5H7V5h4v3.75H8.5v.75H11V11H7zM19 13l-6 6-4-4-4 4v-2.5l4-4 4 4 6-6z"/></svg>

<svg width="24" height="24" viewBox="0 0 24 24" xmlns="http://www.w3.org/2000/svg" fill='currentColor'><path d="M19 3H5C3.9 3 3 3.9 3 5V19C3 20.1 3.9 21 5 21H19C20.1 21 21 20.1 21 19V5C21 3.9 20.1 3 19 3ZM12 5H13.5V8L15.5 5H17.2L15.2 8L17.2 11H15.5L13.5 8V11H12V5ZM7 7.25H9.5V6.5H7V5H11V8.75H8.5V9.5H11V11H7V7.25ZM19 13L13 19L9 15L5 19V16.5L9 12.5L13 16.5L19 10.5V13Z"/></svg>
